icons/svg/dialpad.svg

<svg xmlns="http://www.w3.org/2000/svg" version="1.1" baseProfile="full" width="24" height="24" viewBox="0 0 24.00 24.00" xml:space="preserve"><path fill="#000" fill-opacity="1" stroke-width="1.333" stroke-linejoin="miter" d="M12 19c-1.1 0-2 .9-2 2s.9 2 2 2 2-.9 2-2-.9-2-2-2zM6 1c-1.1 0-2 .9-2 2s.9 2 2 2 2-.9 2-2-.9-2-2-2zm0 6c-1.1 0-2 .9-2 2s.9 2 2 2 2-.9 2-2-.9-2-2-2zm0 6c-1.1 0-2 .9-2 2s.9 2 2 2 2-.9 2-2-.9-2-2-2zm12-8c1.1 0 2-.9 2-2s-.9-2-2-2-2 .9-2 2 .9 2 2 2zm-6 8c-1.1 0-2 .9-2 2s.9 2 2 2 2-.9 2-2-.9-2-2-2zm6 0c-1.1 0-2 .9-2 2s.9 2 2 2 2-.9 2-2-.9-2-2-2zm0-6c-1.1 0-2 .9-2 2s.9 2 2 2 2-.9 2-2-.9-2-2-2zm-6 0c-1.1 0-2 .9-2 2s.9 2 2 2 2-.9 2-2-.9-2-2-2zm0-6c-1.1 0-2 .9-2 2s.9 2 2 2 2-.9 2-2-.9-2-2-2z"/></svg>

﻿<?xml version="1.0" encoding="utf-8"?>
<!DOCTYPE svg PUBLIC "-//W3C//DTD SVG 1.1//EN" "http://www.w3.org/Graphics/SVG/1.1/DTD/svg11.dtd">
<svg xmlns="http://www.w3.org/2000/svg" xmlns:xlink="http://www.w3.org/1999/xlink" version="1.1" baseProfile="full" width="24" height="24" viewBox="0 0 24.00 24.00" enable-background="new 0 0 24.00 24.00" xml:space="preserve">
	<path fill="#000000" fill-opacity="1" stroke-width="1.33333" stroke-linejoin="miter" d="M 12,19C 10.9,19 10,19.9 10,21C 10,22.1 10.9,23 12,23C 13.1,23 14,22.1 14,21C 14,19.9 13.1,19 12,19 Z M 6,1C 4.9,1 4,1.9 4,3C 4,4.1 4.9,5 6,5C 7.1,5 8,4.1 8,3C 8,1.9 7.1,1 6,1 Z M 6,7C 4.9,7 4,7.9 4,9C 4,10.1 4.9,11 6,11C 7.1,11 8,10.1 8,9C 8,7.9 7.1,7 6,7 Z M 6,13C 4.9,13 4,13.9 4,15C 4,16.1 4.9,17 6,17C 7.1,17 8,16.1 8,15C 8,13.9 7.1,13 6,13 Z M 18,5C 19.1,5 20,4.1 20,3C 20,1.9 19.1,1 18,1C 16.9,1 16,1.9 16,3C 16,4.1 16.9,5 18,5 Z M 12,13C 10.9,13 10,13.9 10,15C 10,16.1 10.9,17 12,17C 13.1,17 14,16.1 14,15C 14,13.9 13.1,13 12,13 Z M 18,13C 16.9,13 16,13.9 16,15C 16,16.1 16.9,17 18,17C 19.1,17 20,16.1 20,15C 20,13.9 19.1,13 18,13 Z M 18,7C 16.9,7 16,7.9 16,9C 16,10.1 16.9,11 18,11C 19.1,11 20,10.1 20,9C 20,7.9 19.1,7 18,7 Z M 12,7C 10.9,7 10,7.9 10,9C 10,10.1 10.9,11 12,11C 13.1,11 14,10.1 14,9C 14,7.9 13.1,7 12,7 Z M 12,1C 10.9,1 10,1.9 10,3C 10,4.1 10.9,5 12,5C 13.1,5 14,4.1 14,3C 14,1.9 13.1,1 12,1 Z "/>
</svg>
